;FLAVOR:Marlin
;TIME:5736.06
;Filament used:8.9615m
;Layer Height:0.2
;MINX:60.232
;MINY:47.732
;MINZ:0.2
;MAXX:159.768
;MAXY:172.268
;MAXZ:2.6
;OuterWall Time:157.018
;InnerWall Time:112.835
;Skin Time:5114.35
;Support Time:0
;SkirtBrim Time:0
;Infill Time:139.268
;Support Infills Time:0
;Combing Time:55.7618
;Retraction Time:156.829
;PrimeTower Time:0


;;;;;;;;;;;;;;;;;;;;;;;;;;;;;;;;;;;;;;;;;;;;;;;;;;;;;;;;;;;;;;;;;;;;;;;;;;;;
;Creality Print GCode Generated by CXEngine
;CRSLICE_GIT_HASH:6b8d75d
;Creality Print Version : V4.3.7.6619
;CXEngine Release Time:2023-09-20 15:19:09
;Gcode Generated Time:2024-02-01 22:36:04
;----------Machine Config--------------
;Machine Name:Ender-3 V3 SE
;Machine Height:250
;Machine Width:220
;Machine Depth:220
;Material Type:PLA
;Material Name:CR-PLA_1.75
;Number of Extruders:1
;ExtruderParams[0] Nozzle Diameter:1000
;----------Profile Config---------------
;Wall Thickness:0.8
;Top/Bottom Thickness:0.8
;Out Wall Line Width:0.42
;Inner Wall Line Width:0.45
;Inital Height:200
;Wall Line Count:2
;Infill Line Distance:8
;Infill Pattern:grid
;Infill Sparse Density:10
;Infill Wipe Distance:0
;Print Temperature:205
;Bed Temperature:60
;Support Enable:false
;Support Density:15
;Support Angle:60
;Adhesion Type:autobrim
;machine is belt:false
;machine belt offset:10
;machine belt offset Y:0
;Raft Base Line Spacing:1.6
;Wait Heatup Sync:true
;Enable Ironing:false
;Material Type:PLA
;Max volumetric speed:20
;Material Diameter:1.75
;Material Density:1.24
;Filament Cost:0.3
;Filament Weight:0
;Preview Img Type:png
;Screen Size:Sermoon D3
;----------Shell Config----------------
;Outer Wall Wipe Distance:200
;Outer Inset First:false
;Infill Before Walls:false
;Infill Overlap:0.04
;Fill Gaps Between Walls:everywhere
;Minimum Infill Area:15
;Top Surface Skin Layer:0
;Top Layers:4
;Z Seam Alignment:sharpest_corner
;Seam Corner Preference:z_seam_corner_inner
;Z Seam X:110
;Z Seam Y:220
;Horizontal Expansion:0
;Top/Bottom Pattern:zigzag
;Ironing Pattern:zigzag
;Vase Model:false
;----------Support Config----------------
;Support Type:everywhere
;Support Pattern:zigzag
;Support Infill Layer Thickness:0.15
;Minimum Support Area:1
;Enable Support Roof:true
;Support Roof Thickness:0.8
;Support Roof Pattern:lines
;Connect Support Lines:0
;Connect Support ZigZags:1
;Minimum Support X/Y Distance:0.2
;Support Line Distance:2.67
; ---------PrintSpeed & Travel----------
;Enable Print Cool:true
;Avoid Printed Parts Traveling:true
;Enable Retraction:true
;Retraction Distance:0.8
;Retraction Speed:40
;Retraction Prime Speed:40
;Maximum Retraction Count:100
;Minimum Extrusion Distance Window:0.8
;Z Hop When Retracted:false
;Z Hop Height:0.2
;Retract Before Outer Wall:true

;Outer Wall Speed:60
;Inner Wall Speed:90
;Infill Speed:180
;Top/Bottom Speed:50
;Travel Speed:150
;Initial Layer Speed:30
;Skirt/Brim Speed:25
;Prime Tower Speed:60
;Outer Wall Acceleration:1000
;Inner Wall Acceleration:2000
;Infill Acceleration:2500
;Top/Bottom Acceleration:2500
;Travel Acceleration:2500
;Initial Layer Print Acceleration:500
;Initial Layer Travel Acceleration:500
;Skirt/Brim Acceleration:500
;Combing Mode:noskin
; --------SpecialModel&Mesh Fixes--------
;Union Overlapping Volum:true
;Remove All Holes:false
;Maximum Travel Resolution:0.25
;Maximum Deviation:0.05
;Maximum Model Angle:0.872665
;IS Mold Print:false
;Make Overhang Printable:false
;Enable Coasting:false
;Coasting Volumes:0.064
;Coasting Speed:0.9
;Raft AirGap:0.25
;Layer0 ZOverLap:0.13
;Adaptive Layers:0
;---------------------End of Head--------------------------
M140 S60
M105
M190 S60
M104 S205
M82 ;absolute extrusion mode
M220 S100 ;Reset Feedrate
M221 S100 ;Reset Flowrate

G28 ;Home

G92 E0 ;Reset Extruder
G1 Z2.0 F3000 ;Move Z Axis up
G1 X10.1 Y20 Z0.28 F5000.0 ;Move to start position
M109 S205.000000
G1 X10.1 Y145.0 Z0.28 F1500.0 E15 ;Draw the first line
G1 X10.4 Y145.0 Z0.28 F5000.0 ;Move to side a little
G1 X10.4 Y20 Z0.28 F1500.0 E30 ;Draw the second line
G92 E0  ;Reset Extruder
G1 E-1.0000 F1800 ;Retract a bit
G1 Z2.0 F3000 ;Move Z Axis up
G1 E0.0000 F1800 

G92 E0
G92 E0
G1 F2400 E-0.8
;LAYER_COUNT:13

;LAYER:0
M106 S0
M204 S500
;MESH:0_0
G0 F4800 X112.529 Y58.599 Z0.2
;TYPE:WALL-INNER
G1 F2400 E0
G1 F1800 X112.528 Y58.13 E0.0193
G1 X112.65 Y57.605 E0.04149
G1 X112.931 Y57.014 E0.06842
G1 X113.512 Y56.497 E0.10043
G1 X113.913 Y56.284 E0.11912
G1 X114.391 Y56.154 E0.13951
G1 X115.018 Y56.139 E0.16533
G1 X115.711 Y56.314 E0.19474
G1 X116.235 Y56.688 E0.22124
G1 X116.591 Y57.098 E0.24359
G1 X116.842 Y57.57 E0.26559
G1 X116.971 Y58.107 E0.28833
G1 X116.974 Y58.762 E0.31529
G1 X116.691 Y59.454 E0.34606
G1 X116.615 Y59.581 E0.35215
G1 X116.382 Y59.882 E0.36782
G1 X116.025 Y60.191 E0.38725
G1 X115.575 Y60.434 E0.4083
G1 X115.125 Y60.564 E0.42758
G1 X114.489 Y60.581 E0.45377
G1 X113.937 Y60.442 E0.47719
G1 X113.535 Y60.234 E0.49582
G1 X113.107 Y59.871 E0.51892
G1 X112.843 Y59.527 E0.53677
G1 X112.648 Y59.121 E0.55531
G1 X112.529 Y58.599 E0.57735
;;retract;;
G1 F2400 E0.01735
G1 X112.65 Y57.605 E-0.09677
G1 X112.931 Y57.014 E-0.17132
G1 X113.188 Y56.785 E-0.21065
G1 F2400 E-0.22265
G0 F4800 X113.008 Y58.55
;TYPE:WALL-OUTER
G1 F2400 E0.57735
G1 F1800 X113.007 Y58.183 E0.59116
G1 X113.103 Y57.761 E0.60746
G1 X113.324 Y57.307 E0.62646
G1 X113.785 Y56.894 E0.64977
G1 X114.114 Y56.726 E0.66367
G1 X114.444 Y56.633 E0.67658
G1 X114.962 Y56.618 E0.69609
G1 X115.505 Y56.76 E0.71722
G1 X115.928 Y57.063 E0.73681
G1 X116.196 Y57.368 E0.75209
G1 X116.398 Y57.755 E0.76853
G1 X116.492 Y58.165 E0.78437
G1 X116.495 Y58.679 E0.80372
G1 X116.257 Y59.252 E0.82707
G1 X116.04 Y59.547 E0.84086
G1 X115.776 Y59.781 E0.85414
G1 X115.391 Y59.99 E0.87063
G1 X115.054 Y60.086 E0.88383
G1 X114.548 Y60.1 E0.90288
G1 X114.11 Y59.991 E0.91988
G1 X113.811 Y59.838 E0.93252
G1 X113.478 Y59.566 E0.94871
G1 X113.257 Y59.281 E0.96228
G1 X113.105 Y58.967 E0.97542
G1 X113.008 Y58.55 E0.99154
G0 F4800 X113.008 Y58.35
;;retract;;
G1 F2400 E0.43154
G1 X113.103 Y57.761 E0.36359
G1 X113.324 Y57.307 E0.30614
G1 X113.785 Y56.894 E0.23568
G1 X114.036 Y56.766 E0.20354
G1 F2400 E0.19154
G0 F4800 X112.379 Y58.35
G0 X112.492 Y59.016
G0 X112.889 Y59.964
G0 X112.888 Y93.946
G0 X112.494 Y94.844
G0 X112.434 Y95.118
G0 X112.388 Y95.827
G1 F2400 E0.99154
G0 F4800 X112.527 Y95.797
;TYPE:WALL-INNER
G1 F1800 X112.528 Y95.331 E1.01072
G1 X112.65 Y94.793 E1.03342
G1 X112.938 Y94.207 E1.0603
G1 X113.516 Y93.695 E1.09208
G1 X113.917 Y93.483 E1.11075
G1 X114.391 Y93.354 E1.13097
G1 X115.005 Y93.34 E1.15625
G1 X115.71 Y93.513 E1.18612
G1 X116.233 Y93.888 E1.21261
G1 X116.594 Y94.296 E1.23504
G1 X116.851 Y94.788 E1.25788
G1 X116.971 Y95.312 E1.28001
G1 X116.975 Y95.97 E1.30709
G1 X116.675 Y96.694 E1.33935
G1 X116.396 Y97.071 E1.35865
G1 X116.052 Y97.376 E1.37757
G1 X115.574 Y97.635 E1.39995
G1 X115.186 Y97.747 E1.41657
G1 X115.099 Y97.763 E1.42021
G1 X114.482 Y97.781 E1.44562
G1 X113.927 Y97.637 E1.46922
G1 X113.542 Y97.438 E1.48706
G1 X113.119 Y97.087 E1.50968
G1 X112.862 Y96.751 E1.52709
G1 X112.652 Y96.331 E1.54642
G1 X112.527 Y95.797 E1.56899
;;retract;;
G1 F2400 E1.00899
G1 X112.65 Y94.793 E0.89374
G1 X112.938 Y94.207 E0.81941
G1 X113.19 Y93.984 E0.78099
G1 F2400 E0.76899
G0 F4800 X113.006 Y95.74
;TYPE:WALL-OUTER
G1 F2400 E1.56899
G1 F1800 X113.005 Y95.401 E1.58176
G1 X113.105 Y94.953 E1.59904
G1 X113.324 Y94.504 E1.61784
G1 X113.787 Y94.095 E1.6411
G1 X114.077 Y93.94 E1.65348
G1 X114.444 Y93.833 E1.66787
G1 X114.942 Y93.819 E1.68663
G1 X115.503 Y93.955 E1.70836
G1 X115.913 Y94.248 E1.72733
G1 X116.19 Y94.559 E1.74301
G1 X116.398 Y94.958 E1.75995
G1 X116.493 Y95.373 E1.77598
G1 X116.493 Y95.884 E1.79522
G1 X116.247 Y96.472 E1.81921
G1 X116.038 Y96.749 E1.83228
G1 X115.77 Y96.986 E1.84574
G1 X115.398 Y97.187 E1.86166
G1 X115.043 Y97.287 E1.87555
G1 X114.549 Y97.3 E1.89415
G1 X114.101 Y97.188 E1.91154
G1 X113.788 Y97.023 E1.92486
G1 X113.474 Y96.762 E1.94023
G1 X113.256 Y96.479 E1.95368
G1 X113.106 Y96.17 E1.96661
G1 X113.006 Y95.74 E1.98323
G0 F4800 X113.006 Y95.54
;;retract;;
G1 F2400 E1.42323
G1 X113.105 Y94.953 E1.3554
G1 X113.324 Y94.504 E1.29851
G1 X113.787 Y94.095 E1.22817
G1 X114.042 Y93.959 E1.19523
G1 F2400 E1.18323
G0 F4800 X112.379 Y95.54
G0 X112.519 Y94.746
G0 X112.877 Y94.075
G0 X113.472 Y93.559
G0 X113.974 Y93.323
G0 X114.392 Y93.214
G0 X115.113 Y93.219
G0 X115.832 Y93.428
G0 X116.336 Y93.791
G0 X116.729 Y94.249
G0 X116.886 Y94.588
G0 X117.2 Y95.362
G0 X151.344 Y95.109
G0 X151.828 Y94.133
G1 F2400 E1.98323
G0 F4800 X151.937 Y94.208
;TYPE:WALL-INNER
G1 F1800 X152.516 Y93.695 E2.01507
G1 X152.921 Y93.482 E2.0339
G1 X153.397 Y93.353 E2.0542
G1 X154.036 Y93.344 E2.08051
G1 X154.709 Y93.513 E2.10907
G1 X155.232 Y93.885 E2.13548
G1 X155.593 Y94.292 E2.15787
G1 X155.852 Y94.791 E2.18101
G1 X155.973 Y95.319 E2.20331
G1 X155.974 Y95.972 E2.23019
G1 X155.669 Y96.709 E2.26302
G1 X155.397 Y97.07 E2.28162
G1 X155.045 Y97.382 E2.30098
G1 X154.577 Y97.635 E2.32288
G1 X154.146 Y97.759 E2.34134
G1 X153.481 Y97.781 E2.36872
G1 X152.945 Y97.644 E2.39149
G1 X152.531 Y97.431 E2.41066
G1 X152.118 Y97.088 E2.43275
G1 X151.843 Y96.727 E2.45143
G1 X151.645 Y96.311 E2.47039
G1 X151.527 Y95.796 E2.49214
G1 X151.527 Y95.343 E2.51079
G1 X151.636 Y94.85 E2.53157
G1 X151.663 Y94.771 E2.535
G1 X151.937 Y94.208 E2.56078
;;retract;;
G1 F2400 E2.00078
G1 X152.921 Y93.482 E1.86147
G1 X153.397 Y93.353 E1.80527
G1 X153.682 Y93.349 E1.77278
G1 F2400 E1.76078
G0 F4800 X152.322 Y94.506
;TYPE:WALL-OUTER
G1 F2400 E2.56078
G1 F1800 X152.778 Y94.101 E2.58374
G1 X153.097 Y93.931 E2.59734
G1 X153.447 Y93.833 E2.61103
G1 X153.959 Y93.82 E2.63031
G1 X154.502 Y93.958 E2.6514
G1 X154.928 Y94.263 E2.67113
G1 X155.195 Y94.563 E2.68625
G1 X155.399 Y94.957 E2.70295
G1 X155.494 Y95.398 E2.71993
G1 X155.492 Y95.872 E2.73778
G1 X155.251 Y96.469 E2.76201
G1 X155.056 Y96.728 E2.77422
G1 X154.769 Y96.988 E2.7888
G1 X154.374 Y97.195 E2.80559
G1 X154.049 Y97.287 E2.8183
G1 X153.537 Y97.301 E2.83759
G1 X153.117 Y97.194 E2.8539
G1 X152.807 Y97.036 E2.867
G1 X152.461 Y96.749 E2.88393
G1 X152.258 Y96.483 E2.89652
G1 X152.103 Y96.161 E2.90998
G1 X152.005 Y95.724 E2.92684
G1 X152.006 Y95.39 E2.93941
G1 X152.107 Y94.95 E2.95641
G1 X152.322 Y94.506 E2.97498
G0 F4800 X152.471 Y94.373
;;retract;;
G1 F2400 E2.41498
G1 X153.097 Y93.931 E2.32766
G1 X153.447 Y93.833 E2.28627
G1 X153.959 Y93.82 E2.22791
G1 X154.307 Y93.908 E2.18698
G1 F2400 E2.17498
G0 F4800 X152.055 Y93.905
G0 X151.774 Y94.218
G0 X151.494 Y94.844
G0 X151.387 Y95.329
G0 X151.406 Y95.896
G0 X151.519 Y96.374
G0 X151.729 Y96.808
G0 X152.11 Y97.262
G0 X152.422 Y97.533
G0 X152.756 Y97.687
G0 X153.586 Y98.007
G0 X153.912 Y113.113
G0 X154.832 Y113.428
G0 X155.336 Y113.791
G0 X155.729 Y114.249
G0 X156.007 Y114.848
G0 X156.113 Y115.324
G0 X156.07 Y116.11
G0 X155.794 Y116.773
G0 X155.448 Y117.214
G0 X155.214 Y117.4
G0 X154.641 Y117.758
G1 F2400 E2.97498
G0 F4800 X154.577 Y117.635
;TYPE:WALL-INNER
G1 F1800 X154.146 Y117.759 E2.99344
G1 X153.481 Y117.781 E3.02082
G1 X152.94 Y117.643 E3.0438
G1 X152.528 Y117.425 E3.06299
G1 X152.117 Y117.086 E3.08492
G1 X151.843 Y116.727 E3.10351
G1 X151.651 Y116.319 E3.12207
G1 X151.528 Y115.801 E3.14398
G1 X151.528 Y115.329 E3.16341
G1 X151.65 Y114.796 E3.18591
G1 X151.932 Y114.213 E3.21257
G1 X152.52 Y113.692 E3.2449
G1 X152.901 Y113.494 E3.26258
G1 X153.395 Y113.353 E3.28372
G1 X154.036 Y113.344 E3.31011
G1 X154.709 Y113.513 E3.33867
G1 X155.232 Y113.885 E3.36508
G1 X155.593 Y114.292 E3.38748
G1 X155.852 Y114.791 E3.41062
G1 X155.973 Y115.319 E3.43291
G1 X155.974 Y115.972 E3.45979
G1 X155.669 Y116.709 E3.49262
G1 X155.397 Y117.07 E3.51122
G1 X155.106 Y117.328 E3.52723
G1 X154.973 Y117.421 E3.53391
G1 X154.577 Y117.635 E3.55244
;;retract;;
G1 F2400 E2.99244
G1 X153.481 Y117.781 E2.86647
G1 X152.94 Y117.643 E2.80285
G1 X152.643 Y117.486 E2.76444
G1 F2400 E2.75244
G0 F4800 X154.374 Y117.195
;TYPE:WALL-OUTER
G1 F2400 E3.55244
G1 F1800 X154.049 Y117.287 E3.56515
G1 X153.536 Y117.301 E3.58447
G1 X153.097 Y117.186 E3.60156
G1 X152.808 Y117.036 E3.61381
G1 X152.461 Y116.749 E3.63077
G1 X152.245 Y116.458 E3.64441
G1 X152.1 Y116.153 E3.65712
G1 X152.005 Y115.729 E3.67348
G1 X152.009 Y115.372 E3.68692
G1 X152.097 Y114.978 E3.70212
G1 X152.329 Y114.504 E3.72199
G1 X152.787 Y114.095 E3.74511
G1 X153.087 Y113.935 E3.75791
G1 X153.447 Y113.833 E3.77199
G1 X153.959 Y113.82 E3.79127
G1 X154.502 Y113.958 E3.81237
G1 X154.928 Y114.263 E3.83209
G1 X155.195 Y114.563 E3.84721
G1 X155.399 Y114.957 E3.86391
G1 X155.494 Y115.398 E3.8809
G1 X155.492 Y115.872 E3.89874
G1 X155.251 Y116.469 E3.92298
G1 X155.056 Y116.728 E3.93519
G1 X154.789 Y116.97 E3.94875
G1 X154.746 Y117 E3.95073
G1 X154.374 Y117.195 E3.96654
G0 F4800 X154.182 Y117.249
;;retract;;
G1 F2400 E3.40654
G1 X153.536 Y117.301 E3.33267
G1 X153.097 Y117.186 E3.28102
G1 X152.808 Y117.036 E3.24397
G1 X152.461 Y116.749 E3.19267
G1 X152.388 Y116.65 E3.17854
G1 F2400 E3.16654
G0 F4800 X154.354 Y117.852
G0 X153.586 Y118.007
G0 X152.477 Y160.958
G0 X151.774 Y161.718
G0 X151.494 Y162.344
G0 X151.434 Y162.618
G0 X151.387 Y163.321
G1 F2400 E3.96654
G0 F4800 X151.531 Y163.29
;TYPE:WALL-INNER
G1 F1800 X151.529 Y162.86 E3.98424
G1 X151.648 Y162.3 E4.0078
G1 X151.936 Y161.708 E4.0349
G1 X152.519 Y161.192 E4.06694
G1 X152.931 Y160.983 E4.08596
G1 X153.396 Y160.853 E4.10583
G1 X154.036 Y160.844 E4.13217
G1 X154.709 Y161.013 E4.16073
G1 X155.232 Y161.385 E4.18715
G1 X155.593 Y161.792 E4.20954
G1 X155.852 Y162.291 E4.23268
G1 X155.973 Y162.819 E4.25498
G1 X155.974 Y163.472 E4.28186
G1 X155.669 Y164.209 E4.31469
G1 X155.397 Y164.57 E4.33329
G1 X155.045 Y164.882 E4.35265
G1 X154.583 Y165.132 E4.37427
G1 X154.11 Y165.265 E4.39449
G1 X153.483 Y165.281 E4.42031
G1 X152.935 Y165.142 E4.44358
G1 X152.534 Y164.934 E4.46217
G1 X152.118 Y164.589 E4.48442
G1 X151.843 Y164.227 E4.50313
G1 X151.65 Y163.816 E4.52182
G1 X151.531 Y163.29 E4.54401
;;retract;;
G1 F2400 E3.98401
G1 X151.648 Y162.3 E3.87047
G1 X151.936 Y161.708 E3.79546
G1 X152.195 Y161.479 E3.75601
G1 F2400 E3.74401
G0 F4800 X152.006 Y163.239
;TYPE:WALL-OUTER
G1 F2400 E4.54401
G1 F1800 X152.006 Y162.898 E4.55685
G1 X152.108 Y162.445 E4.57433
G1 X152.321 Y162.009 E4.5926
G1 X152.778 Y161.601 E4.61566
G1 X153.097 Y161.431 E4.62927
G1 X153.447 Y161.333 E4.64296
G1 X153.959 Y161.32 E4.66224
G1 X154.502 Y161.458 E4.68333
G1 X154.928 Y161.763 E4.70305
G1 X155.195 Y162.063 E4.71817
G1 X155.399 Y162.457 E4.73488
G1 X155.494 Y162.898 E4.75186
G1 X155.492 Y163.372 E4.76971
G1 X155.251 Y163.969 E4.79394
G1 X155.056 Y164.228 E4.80615
G1 X154.77 Y164.487 E4.82067
G1 X154.387 Y164.691 E4.83701
G1 X154.055 Y164.786 E4.85001
G1 X153.536 Y164.801 E4.86956
G1 X153.106 Y164.691 E4.88627
G1 X152.779 Y164.516 E4.90023
G1 X152.485 Y164.272 E4.91461
G1 X152.269 Y163.998 E4.92775
G1 X152.103 Y163.66 E4.94193
G1 X152.006 Y163.239 E4.95819
G0 F4800 X152.006 Y163.039
;;retract;;
G1 F2400 E4.39819
G1 X152.108 Y162.445 E4.32956
G1 X152.321 Y162.009 E4.27427
G1 X152.778 Y161.601 E4.2045
G1 X153.043 Y161.46 E4.17019
G1 F2400 E4.15819
G0 F4800 X151.379 Y163.039
G0 X68.702 Y163.33
G0 X68.294 Y164.273
G0 X67.948 Y164.714
G0 X67.533 Y165.045
G0 X67.116 Y165.27
G0 X66.608 Y165.405
G0 X65.887 Y165.4
G0 X65.409 Y165.284
G0 X64.852 Y164.963
G0 X64.528 Y164.701
G0 X64.19 Y164.227
G0 X64.081 Y163.974
G0 X63.89 Y163.327
G1 F2400 E4.95819
G0 F4800 X64.027 Y163.293
;TYPE:WALL-INNER
G1 F1800 X64.027 Y162.837 E4.97696
G1 X64.148 Y162.297 E4.99974
G1 X64.373 Y161.836 E5.02085
G1 X64.54 Y161.617 E5.03219
G1 X65.012 Y161.197 E5.05819
G1 X65.41 Y160.986 E5.07673
G1 X65.875 Y160.854 E5.09663
G1 X66.516 Y160.839 E5.12302
G1 X67.215 Y161.018 E5.15272
G1 X67.727 Y161.382 E5.17857
G1 X68.095 Y161.795 E5.20134
G1 X68.345 Y162.278 E5.22373
G1 X68.473 Y162.828 E5.24697
G1 X68.471 Y163.468 E5.27331
G1 X68.18 Y164.183 E5.30508
G1 X67.901 Y164.567 E5.32462
G1 X67.545 Y164.882 E5.34419
G1 X67.074 Y165.137 E5.36623
G1 X66.609 Y165.265 E5.38608
G1 X65.98 Y165.281 E5.41198
G1 X65.421 Y165.135 E5.43576
G1 X65.034 Y164.933 E5.45373
G1 X64.619 Y164.589 E5.47591
