;FLAVOR:Marlin
;TIME:598.889
;Filament used:0.781813m
;Layer Height:0.2
;MINX:83.352
;MINY:92.985
;MINZ:0.2
;MAXX:136.651
;MAXY:127.015
;MAXZ:2.6
;OuterWall Time:71.9968
;InnerWall Time:59.2238
;Skin Time:355.749
;Support Time:0
;SkirtBrim Time:0
;Infill Time:10.6502
;Support Infills Time:0
;Combing Time:57.2923
;Retraction Time:43.9766
;PrimeTower Time:0

;;;;;;;;;;;;;;;;;;;;;;;;;;;;;;;;;;;;;;;;;;;;;;;;;;;;;;;;;;;;;;;;;;;;;;;;;;;;
;Creality Print GCode Generated by CXEngine
;CRSLICE_GIT_HASH:6b8d75d
;Creality Print Version : V4.3.7.6619
;CXEngine Release Time:2023-09-20 15:19:09
;Gcode Generated Time:2024-01-23 23:42:05
;----------Machine Config--------------
;Machine Name:Ender-3 V3 SE
;Machine Height:250
;Machine Width:220
;Machine Depth:220
;Material Type:PLA
;Material Name:CR-PLA_1.75
;Number of Extruders:1
;ExtruderParams[0] Nozzle Diameter:1000
;----------Profile Config---------------
;Wall Thickness:0.8
;Top/Bottom Thickness:0.8
;Out Wall Line Width:0.42
;Inner Wall Line Width:0.45
;Inital Height:200
;Wall Line Count:2
;Infill Line Distance:8
;Infill Pattern:grid
;Infill Sparse Density:10
;Infill Wipe Distance:0
;Print Temperature:205
;Bed Temperature:60
;Support Enable:false
;Support Density:15
;Support Angle:60
;Adhesion Type:autobrim
;machine is belt:false
;machine belt offset:10
;machine belt offset Y:0
;Raft Base Line Spacing:1.6
;Wait Heatup Sync:true
;Enable Ironing:false
;Material Type:PLA
;Max volumetric speed:20
;Material Diameter:1.75
;Material Density:1.24
;Filament Cost:0.3
;Filament Weight:0
;Preview Img Type:png
;Screen Size:Sermoon D3
;----------Shell Config----------------
;Outer Wall Wipe Distance:200
;Outer Inset First:false
;Infill Before Walls:false
;Infill Overlap:0.04
;Fill Gaps Between Walls:everywhere
;Minimum Infill Area:15
;Top Surface Skin Layer:0
;Top Layers:4
;Z Seam Alignment:sharpest_corner
;Seam Corner Preference:z_seam_corner_inner
;Z Seam X:110
;Z Seam Y:220
;Horizontal Expansion:0
;Top/Bottom Pattern:zigzag
;Ironing Pattern:zigzag
;Vase Model:false
;----------Support Config----------------
;Support Type:everywhere
;Support Pattern:zigzag
;Support Infill Layer Thickness:0.15
;Minimum Support Area:1
;Enable Support Roof:true
;Support Roof Thickness:0.8
;Support Roof Pattern:lines
;Connect Support Lines:0
;Connect Support ZigZags:1
;Minimum Support X/Y Distance:0.2
;Support Line Distance:2.67
; ---------PrintSpeed & Travel----------
;Enable Print Cool:true
;Avoid Printed Parts Traveling:true
;Enable Retraction:true
;Retraction Distance:0.8
;Retraction Speed:40
;Retraction Prime Speed:40
;Maximum Retraction Count:100
;Minimum Extrusion Distance Window:0.8
;Z Hop When Retracted:false
;Z Hop Height:0.2
;Retract Before Outer Wall:true

;Outer Wall Speed:60
;Inner Wall Speed:90
;Infill Speed:180
;Top/Bottom Speed:50
;Travel Speed:150
;Initial Layer Speed:30
;Skirt/Brim Speed:25
;Prime Tower Speed:60
;Outer Wall Acceleration:1000
;Inner Wall Acceleration:2000
;Infill Acceleration:2500
;Top/Bottom Acceleration:2500
;Travel Acceleration:2500
;Initial Layer Print Acceleration:500
;Initial Layer Travel Acceleration:500
;Skirt/Brim Acceleration:500
;Combing Mode:noskin
; --------SpecialModel&Mesh Fixes--------
;Union Overlapping Volum:true
;Remove All Holes:false
;Maximum Travel Resolution:0.25
;Maximum Deviation:0.05
;Maximum Model Angle:0.872665
;IS Mold Print:false
;Make Overhang Printable:false
;Enable Coasting:false
;Coasting Volumes:0.064
;Coasting Speed:0.9
;Raft AirGap:0.25
;Layer0 ZOverLap:0.13
;Adaptive Layers:0
;---------------------End of Head--------------------------
M140 S60
M105
M190 S60
M104 S205
M82 ;absolute extrusion mode
M220 S100 ;Reset Feedrate
M221 S100 ;Reset Flowrate

G28 ;Home

G92 E0 ;Reset Extruder
G1 Z2.0 F3000 ;Move Z Axis up
G1 X10.1 Y20 Z0.28 F5000.0 ;Move to start position
M109 S205.000000
G1 X10.1 Y145.0 Z0.28 F1500.0 E15 ;Draw the first line
G1 X10.4 Y145.0 Z0.28 F5000.0 ;Move to side a little
G1 X10.4 Y20 Z0.28 F1500.0 E30 ;Draw the second line
G92 E0  ;Reset Extruder
G1 E-1.0000 F1800 ;Retract a bit
G1 Z2.0 F3000 ;Move Z Axis up
G1 E0.0000 F1800 

G92 E0
G92 E0
G1 F2400 E-0.8
;LAYER_COUNT:13

;LAYER:0
M106 S0
M204 S500
;MESH:0_0
G0 F4800 X97.674 Y106.988 Z0.2
;TYPE:WALL-INNER
G1 F2400 E0
G1 F2101.4 X97.15 Y107.509 E0.02605
G1 F1887.7 X96.757 Y107.695 E0.04312
G1 F1811 X96.117 Y107.814 E0.06975
G1 F1800 X95.55 Y107.706 E0.0935
G1 X95.308 Y107.628 E0.10397
G1 X94.805 Y107.302 E0.12864
G1 X88.858 Y101.359 E0.47469
G1 X88.452 Y100.849 E0.50152
G1 X88.28 Y100.202 E0.52907
G1 X88.26 Y99.697 E0.54988
G1 X88.434 Y99.091 E0.57583
G1 F1928.6 X88.729 Y98.711 E0.59431
G1 F2067.3 X89.169 Y98.287 E0.6162
G1 F1920.3 X89.771 Y97.93 E0.64321
G1 F1800 X90.398 Y97.893 E0.66906
G1 X90.854 Y97.969 E0.68809
G1 X91.331 Y98.159 E0.70922
G1 X91.731 Y98.487 E0.73051
G1 X97.582 Y104.338 E1.07109
G1 X97.828 Y104.637 E1.08702
G1 X98.085 Y105.123 E1.10965
G1 X98.158 Y105.69 E1.13318
G1 X98.137 Y106.079 E1.14922
G1 X97.946 Y106.693 E1.17568
G1 F2006.8 X97.674 Y106.988 E1.1905
G0 F4800 X97.883 Y107.128
G0 X101.62 Y106.271
G0 X101.546 Y106.458
G1 F1800 X101.988 Y106.63 E1.21002
G1 X102.489 Y106.92 E1.23385
G1 F2043.6 X102.794 Y107.24 E1.24987
G1 F2382.4 X102.902 Y107.341 E1.25447
G1 F2376 X103.164 Y107.616 E1.26631
G1 F2261.4 X103.225 Y107.667 E1.26892
G1 F1975.6 X103.454 Y107.896 E1.28106
G1 F1800 X103.695 Y108.291 E1.30011
G1 X103.914 Y108.813 E1.32341
G1 X104.034 Y109.293 E1.34377
G1 X104.086 Y109.654 E1.35878
G1 X104.106 Y110.082 E1.37642
G1 X104.055 Y110.635 E1.39928
G1 X103.914 Y111.188 E1.42277
G1 X103.72 Y111.642 E1.44309
G1 X103.499 Y112.053 E1.4623
G1 F1984.4 X103.221 Y112.335 E1.47708
G1 F2278.8 X103.173 Y112.375 E1.47911
G1 F2376 X102.957 Y112.602 E1.48888
G1 F2205.4 X102.663 Y112.907 E1.50311
G1 F1912 X102.436 Y113.111 E1.51494
G1 F1800 X102.024 Y113.349 E1.53452
G1 X101.599 Y113.523 E1.55342
G1 X101.168 Y113.645 E1.57186
G1 X100.853 Y113.7 E1.58502
G1 X100.504 Y113.728 E1.59943
G1 X100.014 Y113.718 E1.6196
G1 X99.583 Y113.646 E1.63759
G1 X99.428 Y113.607 E1.64417
G1 X99.169 Y113.533 E1.65526
G1 X98.872 Y113.417 E1.66838
G1 X98.539 Y113.25 E1.68371
G1 F1916.1 X98.209 Y113.042 E1.69879
G1 F2189.2 X97.945 Y112.757 E1.71194
G1 F2382.4 X97.666 Y112.477 E1.72423
G1 F2067.3 X97.345 Y112.198 E1.73948
G1 F1803.6 X97.035 Y111.678 E1.76434
G1 F1800 X96.855 Y111.244 E1.78368
G1 X96.746 Y110.88 E1.79932
G1 X96.679 Y110.53 E1.81399
G1 X96.645 Y110.189 E1.82809
G1 X96.645 Y109.819 E1.84332
G1 X96.689 Y109.405 E1.86046
G1 X96.765 Y109.048 E1.87548
G1 X96.855 Y108.758 E1.88798
G1 X97.063 Y108.266 E1.90997
G1 F1912 X97.284 Y107.902 E1.92647
G1 F2173.2 X97.558 Y107.636 E1.93948
G1 F2363.4 X97.898 Y107.285 E1.9548
G1 F2053 X98.168 Y106.99 E1.96923
G1 F1800 X98.534 Y106.753 E1.98718
G1 X98.862 Y106.587 E2.00231
G1 X99.206 Y106.456 E2.01746
G1 X99.567 Y106.356 E2.03288
G1 X99.94 Y106.294 E2.04844
G1 X100.252 Y106.272 E2.06132
G1 X100.742 Y106.283 E2.08149
G1 X101.229 Y106.369 E2.10185
G1 X101.546 Y106.458 E2.1154
G0 F4800 X101.62 Y106.271
G0 X102.569 Y106.809
G0 X103.197 Y107.364
G0 X103.607 Y107.879
G0 X104.035 Y108.736
G0 X104.226 Y109.676
G0 X104.173 Y111.016
G0 X103.689 Y112.18
G0 X104.589 Y112.04
G0 X105.449 Y112.158
G0 X105.375 Y112.331
G1 F1800 X105.938 Y112.7 E2.1431
G1 X112.014 Y118.774 E2.49672
G1 X112.293 Y119.218 E2.5183
G1 X112.459 Y119.71 E2.53967
G1 X112.478 Y120.193 E2.55957
G1 X112.474 Y120.304 E2.56414
G1 X112.45 Y120.421 E2.56906
G1 F1818.4 X112.314 Y120.888 E2.58888
G1 F2096.5 X111.958 Y121.342 E2.60926
G1 F2363.4 X111.547 Y121.74 E2.6272
G1 F2116.4 X111.1 Y122.007 E2.64543
G1 F1879.7 X110.82 Y122.079 E2.65682
G1 F1800 X110.367 Y122.109 E2.67551
G1 X109.892 Y122.032 E2.69531
G1 X109.421 Y121.845 E2.71617
G1 X109.011 Y121.513 E2.73788
G1 X103.053 Y115.554 E3.08472
G1 X102.779 Y115.122 E3.10577
G1 X102.636 Y114.722 E3.12326
G1 X102.584 Y114.31 E3.14035
G1 X102.609 Y113.919 E3.15648
G1 X102.755 Y113.41 E3.17827
G1 F1962.6 X102.987 Y113.089 E3.19322
G1 F2029.6 X103.614 Y112.465 E3.22551
G1 F1856.2 X104.081 Y112.286 E3.24547
G1 F1800 X104.632 Y112.19 E3.26849
G1 X105.375 Y112.331 E3.29962
G0 F4800 X105.449 Y112.158
G0 X104.25 Y112.044
G0 X103.689 Y112.18
G0 X104.267 Y110.603
G0 X104.129 Y108.812
G0 X103.682 Y107.819
G0 X105.011 Y107.969
G0 X106.136 Y107.402
G0 X112.444 Y100.933
G0 X112.69 Y100.014
G0 X112.625 Y99.289
G0 X113.434 Y100.234
G0 X114.708 Y102.225
G0 X115.315 Y103.504
G0 X116.091 Y105.584
G0 X116.282 Y105.522
G1 F1800 X116.419 Y105.713 E3.3093
G1 X116.759 Y105.93 E3.3259
G1 X132.166 Y105.935 E3.96004
G1 X132.686 Y106.01 E3.98167
G1 X132.985 Y106.08 E3.99431
G1 X133.357 Y106.205 E4.01046
G1 X133.641 Y106.332 E4.02326
G1 X134.001 Y106.527 E4.04011
G1 X134.41 Y106.804 E4.06045
G1 X134.792 Y107.156 E4.08183
G1 X135.134 Y107.544 E4.10311
G1 X135.405 Y107.962 E4.12362
G1 X135.589 Y108.323 E4.1403
G1 X135.741 Y108.71 E4.15741
G1 X135.846 Y109.09 E4.17364
G1 X135.918 Y109.493 E4.19049
G1 X135.949 Y109.874 E4.20622
G1 X135.949 Y109.98 E4.21058
G1 X135.949 Y110.091 E4.21515
G1 X135.918 Y110.505 E4.23224
G1 X135.84 Y110.961 E4.25128
G1 X135.743 Y111.282 E4.26508
G1 X135.591 Y111.671 E4.28227
G1 X135.406 Y112.032 E4.29897
G1 X135.136 Y112.45 E4.31945
G1 X134.881 Y112.753 E4.33575
G1 X134.57 Y113.06 E4.35374
G1 X134.179 Y113.36 E4.37402
G1 X133.819 Y113.58 E4.39139
G1 X133.468 Y113.747 E4.40738
G1 X133.077 Y113.889 E4.42451
G1 X132.69 Y113.988 E4.44095
G1 X132.179 Y114.065 E4.46222
G1 X116.755 Y114.073 E5.09706
G1 X116.42 Y114.287 E5.11342
G1 X116.284 Y114.475 E5.12297
G1 X115.935 Y115.539 E5.16906
G1 X115.624 Y116.34 E5.20443
G1 X115.288 Y117.097 E5.23852
G1 X114.917 Y117.831 E5.27237
G1 X114.508 Y118.546 E5.30627
G1 X114.063 Y119.242 E5.34027
G1 X113.593 Y119.901 E5.37359
G1 X113.079 Y120.554 E5.40779
G1 F1818.4 X112.617 Y121.082 E5.43638
G1 F2072.1 X112.331 Y121.484 E5.45402
G1 F2388.7 X112.003 Y121.816 E5.46849
G1 F2382.4 X111.791 Y122.011 E5.47745
G1 F2043.6 X111.369 Y122.326 E5.49654
G1 F1800 X110.724 Y122.872 E5.53133
G1 X110.082 Y123.362 E5.56457
G1 X109.386 Y123.841 E5.59934
G1 X108.683 Y124.274 E5.63333
G1 X107.963 Y124.671 E5.66717
G1 X107.218 Y125.033 E5.70126
G1 X106.477 Y125.35 E5.73443
G1 X105.685 Y125.64 E5.76915
G1 X104.896 Y125.888 E5.80319
G1 X104.116 Y126.089 E5.83634
G1 X103.289 Y126.257 E5.87108
G1 X102.472 Y126.384 E5.90511
G1 X101.654 Y126.469 E5.93896
G1 X100.829 Y126.513 E5.97296
G1 X100.007 Y126.515 E6.00679
G1 X99.182 Y126.476 E6.04079
G1 X98.363 Y126.397 E6.07465
G1 X97.512 Y126.268 E6.11008
G1 X96.714 Y126.111 E6.14356
G1 X95.937 Y125.913 E6.17656
G1 X95.146 Y125.671 E6.21061
G1 X94.351 Y125.384 E6.24539
G1 X93.609 Y125.072 E6.27852
G1 X92.861 Y124.714 E6.31266
G1 X92.138 Y124.322 E6.34651
G1 X91.432 Y123.891 E6.38055
G1 X90.749 Y123.428 E6.41451
G1 X90.095 Y122.935 E6.44822
G1 X89.459 Y122.403 E6.48235
G1 F1807.3 X89.22 Y122.182 E6.4957
G1 F2062.5 X88.858 Y121.936 E6.51142
G1 F2401.6 X88.466 Y121.535 E6.52872
G1 F2111.4 X88.271 Y121.26 E6.54055
G1 F1840.9 X87.735 Y120.639 E6.57356
G1 F1800 X87.223 Y120 E6.60726
G1 X86.73 Y119.32 E6.64183
G1 X86.284 Y118.627 E6.67575
G1 X85.87 Y117.912 E6.70976
G1 X85.494 Y117.18 E6.74363
G1 X85.154 Y116.428 E6.7776
G1 X84.842 Y115.628 E6.81294
G1 X84.588 Y114.874 E6.84569
G1 X84.363 Y114.08 E6.87966
G1 X84.187 Y113.309 E6.91221
G1 X84.038 Y112.465 E6.94748
G1 X83.934 Y111.646 E6.98146
G1 X83.873 Y110.822 E7.01547
G1 X83.852 Y110.002 E7.04923
G1 X83.871 Y109.213 E7.08172
G1 X83.934 Y108.354 E7.11717
G1 X84.038 Y107.535 E7.15115
G1 X84.186 Y106.691 E7.18642
G1 X84.363 Y105.92 E7.21898
G1 X84.588 Y105.126 E7.25294
G1 X84.842 Y104.373 E7.28565
G1 X85.154 Y103.572 E7.32103
G1 X85.494 Y102.821 E7.35497
G1 X85.87 Y102.089 E7.38884
G1 X86.284 Y101.373 E7.42288
G1 X86.73 Y100.681 E7.45676
G1 X87.205 Y100.024 E7.49013
G1 X87.724 Y99.373 E7.5244
G1 X88.185 Y98.851 E7.55306
G1 F2057.7 X88.428 Y98.505 E7.56829
G1 F2401.6 X88.838 Y98.089 E7.58631
G1 F2338.6 X89.046 Y97.911 E7.59498
G1 F2011.3 X89.428 Y97.626 E7.61253
G1 F1800 X90.079 Y97.08 E7.64751
G1 X90.75 Y96.572 E7.68215
G1 X91.432 Y96.109 E7.71607
G1 X92.138 Y95.678 E7.75012
G1 X92.861 Y95.286 E7.78397
G1 X93.609 Y94.929 E7.81808
G1 X94.351 Y94.617 E7.85122
G1 X95.147 Y94.329 E7.88606
G1 X95.936 Y94.088 E7.92001
G1 X96.714 Y93.89 E7.95306
G1 X97.546 Y93.726 E7.98796
G1 X98.363 Y93.603 E8.02196
G1 X99.182 Y93.524 E8.05583
G1 X100.007 Y93.485 E8.08983
G1 X100.831 Y93.488 E8.12374
G1 X101.619 Y93.528 E8.15622
G1 X102.472 Y93.616 E8.19151
G1 X103.289 Y93.743 E8.22554
G1 X104.116 Y93.91 E8.26027
G1 X104.895 Y94.112 E8.29339
G1 X105.685 Y94.36 E8.32747
G1 X106.477 Y94.65 E8.36219
G1 X107.218 Y94.967 E8.39536
G1 X107.959 Y95.327 E8.42927
G1 X108.683 Y95.726 E8.46329
G1 X109.361 Y96.143 E8.49606
G1 X110.049 Y96.614 E8.53037
G1 X110.713 Y97.119 E8.56471
G1 F1844.7 X111.556 Y97.833 E8.60908
G1 F2101.4 X111.88 Y98.057 E8.62296
G1 F2369.7 X112.371 Y98.568 E8.64512
G1 F2131.6 X112.537 Y98.802 E8.65509
G1 F1864 X112.743 Y99.063 E8.66831
G1 F1800 X113.066 Y99.43 E8.68843
G1 X113.572 Y100.071 E8.72204
G1 X114.062 Y100.757 E8.75674
G1 X114.506 Y101.452 E8.79069
G1 X114.916 Y102.169 E8.82468
G1 X115.288 Y102.904 E8.85859
G1 X115.623 Y103.658 E8.89255
G1 X115.933 Y104.46 E8.92794
G1 X116.282 Y105.522 E8.97395
G0 F4800 X116.091 Y105.584
G0 X115.402 Y103.672
G0 X114.438 Y101.753
G0 X113.408 Y100.2
G0 X112.179 Y98.605
G0 X111.738 Y98.168
G0 X110.713 Y97.7
G0 X110.687 Y97.888
G1 F1822.1 X111.277 Y98.062 E8.99896
G1 F2096.5 X111.707 Y98.406 E9.01842
G1 F2200 X112.164 Y98.881 E9.04062
G1 F1899.8 X112.385 Y99.297 E9.05899
G1 F1800 X112.45 Y99.55 E9.06974
G1 X112.482 Y100.031 E9.08958
G1 X112.453 Y100.283 E9.10002
G1 X112.295 Y100.78 E9.12149
G1 X112.013 Y101.227 E9.14324
G1 X105.937 Y107.302 E9.49688
G1 X105.49 Y107.595 E9.51888
G1 X105.008 Y107.763 E9.53989
G1 F1803.6 X104.379 Y107.794 E9.56576
G1 F1811 X103.764 Y107.613 E9.59199
G1 F1932.8 X103.415 Y107.341 E9.60895
G1 F2002.2 X102.892 Y106.806 E9.63663
G1 F1867.9 X102.819 Y106.692 E9.642
G1 F1800 X102.619 Y106.261 E9.66156
G1 X102.571 Y105.514 E9.69237
G1 X102.772 Y104.89 E9.71935
G1 X103.032 Y104.467 E9.73979
G1 X109.022 Y98.477 E10.08845
G1 X109.434 Y98.153 E10.11003
G1 X109.665 Y98.043 E10.12056
G1 X110.164 Y97.909 E10.14182
G1 X110.687 Y97.888 E10.16337
;;retract;;
G1 F2400 E9.60337
G1 X111.707 Y98.406 E9.47306
G1 X112.164 Y98.881 E9.39794
G1 X112.256 Y99.055 E9.37537
G1 F2400 E9.36337
G0 F4800 X110.627 Y98.369
;TYPE:WALL-OUTER
G1 F2400 E10.16337
G1 F1800 X111.085 Y98.504 E10.18134
G1 X111.423 Y98.708 E10.19621
G1 X111.733 Y99.038 E10.21325
G1 X111.97 Y99.54 E10.23415
G1 X112.008 Y100.106 E10.25551
G1 X111.847 Y100.593 E10.27482
G1 X111.625 Y100.941 E10.29036
G1 X105.633 Y106.933 E10.60938
G1 X105.283 Y107.159 E10.62506
G1 X104.902 Y107.291 E10.64024
G1 X104.435 Y107.312 E10.65784
G1 X103.975 Y107.17 E10.67596
G1 X103.656 Y106.988 E10.68979
G1 X103.352 Y106.672 E10.7063
G1 X103.31 Y106.611 E10.70909
G1 X103.094 Y106.148 E10.72832
G1 X103.054 Y105.575 E10.74995
G1 X103.203 Y105.107 E10.76844
G1 X103.407 Y104.77 E10.78327
G1 X109.376 Y98.802 E11.10104
G1 X109.747 Y98.516 E11.11867
G1 X110.261 Y98.384 E11.13865
G1 X110.627 Y98.369 E11.15244
G0 F4800 X110.819 Y98.425
;;retract;;
G1 F2400 E10.59244
G1 X111.423 Y98.708 E10.5164
G1 X111.733 Y99.038 E10.46487
G1 X111.97 Y99.54 E10.4016
G1 X111.991 Y99.865 E10.36444
G1 F2400 E10.35244
G0 F4800 X111.011 Y97.775
G0 X111.738 Y98.168
G0 X112.269 Y98.718
G0 X112.587 Y99.475
G0 X112.603 Y100.277
G0 X112.403 Y100.873
G0 X112.091 Y101.35
G0 X105.654 Y107.738
G0 X104.504 Y107.996
G0 X103.682 Y107.819
G0 X104.284 Y109.548
G0 X104.086 Y111.316
G0 X103.689 Y112.18
G0 X104.589 Y112.04
G0 X105.455 Y112.161
G1 F2400 E11.15244
G0 F4800 X105.19 Y112.781
G1 F1800 X105.635 Y113.07 E11.17242
G1 X111.626 Y119.06 E11.49136
G1 X111.847 Y119.406 E11.50681
G1 X111.978 Y119.774 E11.52152
G1 X111.999 Y120.249 E11.53942
G1 X111.873 Y120.692 E11.55676
G1 X111.679 Y121.036 E11.57163
G1 X111.334 Y121.365 E11.58957
G1 X110.832 Y121.599 E11.61043
G1 X110.41 Y121.627 E11.62635
